X: 22231
T: La Duenna
R: reel
M: 4/4
K: Gmajor
G2|G2G2 A3B|B4 B2A2|B3A B2^c2|d6 AB|c2c2 B2G2|A2F2 D2dc|B2c2 A3G|G6:|
|:B2|A2d2 d2^c2|d6 A>B|c2c2 B3A|A6 dc|B2G2 d4|DEFG ABc2|B3c B2A2|G6:|

